_includes/icons/color-dislike.svg

<svg fill="#666" height="50" viewBox="0 0 48 48" width="50" xmlns="http://www.w3.org/2000/svg"><path d="m34 9c-4.199219 0-7.898437 2.101563-10 5.398438-2.101562-3.296875-5.800781-5.398438-10-5.398438-6.601562 0-12 5.398438-12 12 0 11.898438 22 24 22 24s22-12 22-24c0-6.601562-5.398437-12-12-12z" fill="#f44336"/><path d="m3.566406 6.394531 2.828125-2.828125 37.96875 37.96875-2.828125 2.828125z" fill="#37474f"/></svg>

<svg xmlns="http://www.w3.org/2000/svg" viewBox="0 0 48 48" width="50" height="50" fill="#666"><path d="M 34 9 C 29.800781 9 26.101563 11.101563 24 14.398438 C 21.898438 11.101563 18.199219 9 14 9 C 7.398438 9 2 14.398438 2 21 C 2 32.898438 24 45 24 45 C 24 45 46 33 46 21 C 46 14.398438 40.601563 9 34 9 Z" fill="#f44336"/><path d="M 3.566406 6.394531 L 6.394531 3.566406 L 44.363281 41.535156 L 41.535156 44.363281 Z" fill="#37474f"/></svg>
